build/img/about_methods/card/icons/pink.svg

<svg width="62" height="61" viewBox="0 0 62 61" fill="none" xmlns="http://www.w3.org/2000/svg">
<path fill-rule="evenodd" clip-rule="evenodd" d="M27.7828 1.08305C40.1276 1.0324 55.8273 14.9354 59.685 26.0948C63.3496 36.6956 54.8875 46.1154 45.7916 53.178C35.6341 61.0649 20.9626 62.7667 10.3357 55.4973C0.0445645 48.4575 -1.16046 35.1489 2.54433 23.5944C6.26422 11.9928 15.0493 1.13528 27.7828 1.08305Z" fill="#E5CCCC"/>
<path d="M28.3312 39.2718C28.6361 39.3338 28.6697 39.7316 28.3748 39.8309L26.5719 40.4306C22.0413 41.9084 19.623 40.7813 18.0672 36.4702L16.5233 32.1808C14.979 27.8695 16.1552 25.5542 20.6857 24.0764L21.4243 23.8292C21.8273 23.6943 22.22 24.0983 22.1045 24.5073C22.0334 24.7592 21.966 25.0237 21.9007 25.3009L20.8562 29.8978C19.6839 35.0651 21.5807 37.8732 27.006 39.0024L28.3312 39.2718Z" fill="white"/>
<path d="M33.1627 20.8863L31.2392 20.4937C27.392 19.6975 25.1212 20.4475 23.825 23.1146C23.4924 23.7869 23.2312 24.6002 23.0179 25.5327L21.9734 30.1296C20.9287 34.7156 22.4481 36.9401 27.2514 37.9381L29.1865 38.3415C29.8547 38.4828 30.4759 38.5703 31.0504 38.604C34.6358 38.8692 36.5125 37.241 37.4075 33.2805L38.4521 28.6946C39.4968 24.1086 37.9888 21.8729 33.1627 20.8863ZM31.1987 31.9793C31.1019 32.3525 30.7619 32.5988 30.3718 32.6056C30.303 32.6068 30.2339 32.5971 30.1534 32.5876L26.8006 31.8375C26.3397 31.7362 26.0565 31.2932 26.1637 30.8542C26.2708 30.4152 26.7366 30.1448 27.1974 30.2461L30.5503 30.9962C31.0226 31.0972 31.3058 31.5403 31.1987 31.9793ZM34.496 28.2282C34.3992 28.6014 34.0592 28.8478 33.6691 28.8546C33.6002 28.8558 33.5312 28.846 33.4507 28.8365L27.8626 27.59C27.4018 27.4887 27.1186 27.0456 27.2257 26.6067C27.3328 26.1677 27.7987 25.8973 28.2595 25.9985L33.8476 27.2451C34.3197 27.3352 34.6029 27.7783 34.496 28.2282Z" fill="white"/>
</svg>

<svg width="62" height="61" fill="none" xmlns="http://www.w3.org/2000/svg"><path fill-rule="evenodd" clip-rule="evenodd" d="M27.783 1.083c12.345-.05 28.044 13.852 31.902 25.012 3.665 10.6-4.797 20.02-13.893 27.083-10.158 7.887-24.83 9.589-35.456 2.32C.045 48.457-1.16 35.147 2.544 23.593c3.72-11.6 12.506-22.458 25.239-22.509Z" fill="#E5CCCC"/><path d="M28.331 39.272c.305.062.339.46.044.559l-1.803.6c-4.53 1.477-6.949.35-8.505-3.96l-1.544-4.29c-1.544-4.311-.368-6.627 4.163-8.105l.738-.247c.403-.135.796.27.68.678-.07.252-.138.517-.203.794l-1.045 4.597c-1.172 5.167.725 7.975 6.15 9.104l1.325.27Z" fill="#fff"/><path d="m33.163 20.886-1.924-.392c-3.847-.796-6.118-.046-7.414 2.62-.333.673-.594 1.486-.807 2.419l-1.045 4.597c-1.044 4.586.475 6.81 5.278 7.808l1.935.404c.669.14 1.29.228 1.864.262 3.586.265 5.463-1.363 6.357-5.323l1.045-4.586c1.045-4.586-.463-6.822-5.29-7.809ZM31.199 31.98a.852.852 0 0 1-.827.627c-.069 0-.138-.009-.219-.018l-3.352-.75a.816.816 0 0 1-.637-.984c.107-.439.573-.71 1.033-.608l3.353.75c.473.101.756.544.649.983Zm3.297-3.75a.852.852 0 0 1-.827.626c-.069 0-.138-.009-.218-.018l-5.588-1.247a.817.817 0 0 1-.637-.983c.107-.44.573-.71 1.034-.608l5.588 1.246c.472.09.755.533.648.983Z" fill="#fff"/></svg>
